X:1
T:Miss Spark's Maggot
N:
C:
S:Play  6  times
A:
O:
R:
M:6/8
K:G
I:speed 150
%W: A1
% voice 1 (1 lines, 37 notes)
K:G
M:6/8
L:1/16
G2 A2 B2 A2 B2 c2 B4 d2 B4 G2 A2 B2 c2 d2 e2 f2 g6 d4 A2 |G2 A2 B2 A2 B2 c2 B4 d2 ^c4 A2 d2 e2 f2 g2 e2 ^c2 d6 D6 |
%W: A2
% voice 1 (1 lines, 37 notes)
G2 A2 B2 A2 B2 c2 B4 d2 B4 G2 A2 B2 c2 d2 e2 f2 g6 d4 A2 |G2 A2 B2 A2 B2 c2 B4 d2 ^c4 A2 d2 e2 f2 g2 e2 ^c2 d6 D6 |
%W: B1
% voice 1 (1 lines, 42 notes)
d2 ^c2 d2 d2 c2 d2 D4 d2 c4 B2 c2 d2 e2 A2 B2 c2 B2 A2 G2 F2 E2 D2 |g2 f2 g2 g2 f2 g2 g2 f2 e2 d2 c2 B2 A2 B2 c2 B2 c2 A2 G6 G,6 |
%W: B2
% voice 1 (1 lines, 42 notes)
d2 ^c2 d2 d2 c2 d2 D4 d2 c4 B2 c2 d2 e2 A2 B2 c2 B2 A2 G2 F2 E2 D2 |g2 f2 g2 g2 f2 g2 g2 f2 e2 d2 c2 B2 A2 B2 c2 B2 c2 A2 G6 G,6 ||
